X:1
%%MIDI chordname m7(b5) 0 3 6 10
%%MIDI chordname 7(#9) 0 4 7 10 15
T:Blue Bossa
M:4/4
L:1/8
Q:1/4=120
C:Kenny Dorham
Z:Luis Pablo Gasparotto
K:Eb	 
V:2 name="Alto 2"
%%MIDI program 65 
% 
[V:2] z2 || z2 C z z C z C    | z2 C z z C z C    | z2 F z z F z F | z2 F z z F z F | 
% 
[V:2] z2 F z z F z F      | z2 G z z G z G     | z2 C z z C z C       | z2 C z z C z C     | 
% 
[V:2] z2 _G z z G z G     | z2 C z z C z C        | z2 F z z F z F       | z2 F z z F z F     | 
% 
[V:2] F2  EF-   F2  F2    | F2   DG-   G2  F2  | E8-                  | E4        z D3         || 
% 
[V:2] !segno!e3 d c B2 G- | G6 G2              | F4-  FE-  E2         | C8                 | 
% 
[V:2] d3 C A A2 G-        | G6  F2             | E4-  Ed-  d2         | c8                 |  
%  
[V:2] B3  B _G  G2  E-    | E6  E2             | E2   _DF-  F2  DF-   |  F8                | 
% 
[V:2] F2  EF-   F2  F2    | F2   DG-   G2  F2  | E8-                  | E4                  z4 !coda!|: 
% 
[V:2] "Cm"z8              | "Cm"z8             | "Fm"z8               | "Fm"z8             | 
%  
[V:2] "Dm7(b5)"z8           | "G7(#9)"z8           | "Cm"z8               | "Cm"z8             |  
% 
[V:2] "Ebm"z8             | "Ab7"z8            | "Dbmaj7"z8           | "Dbmaj7"z8         | 
%  
[V:2] "Dm7(b5)"z8           | "G7(#9)"z8           | "Cm"z8               |1 "Dm7(b5)"z4 "G7(#9)"z4 :|2   
% 
[V:2] z4 z D3            !D.S.!|] 
%% text Repeat Ending 1 till last solo
%% text 
[V:2] !coda!F2  EF-   F2  F2    | F2   DG-   G2  F2  | E8-                  | E4        z D3         | 
% 
[V:2] HE8                       |] 
